X: 112
T:Parasott Hornpipe
M:2/4
L:1/16
Z:abc by Bruce Osborne - bosborne@kos.net
K:C
cBcd edec|egfe d2ge|cBcd egce|dcBA G2G2|!
cBcd edec|egfe d2gf|egce dfBd|c2e2 c2z2:|!
|:BcAB G2ed|cdBc A2ag|fdag fdag|fefe fdcB|!
cBcd edec|egfe d2gf|egce dfBd|c2e2 c2z2:|!
